assets/svg/305-K.svg

<svg xmlns="http://www.w3.org/2000/svg" xmlns:xlink="http://www.w3.org/1999/xlink" width="22.5" height="22.5"><defs><path id="a" d="M0 0h22.5v22.5H0z"/></defs><clipPath id="b"><use xlink:href="#a" overflow="visible"/></clipPath><path fill="none" stroke="#000" stroke-width=".43" d="m1.8 21.8 3.72-2.42M1.57 19 0 18.38m8.55 1.54-2.6-2.83m.78-1.69 3.4-1.7m-.01-4.47-2.48 3.13M3.5 11.5l2.7 2.33m-4.3 1.45-1.8-3.6m8.6 5.64 4.14 1.7M4.05 14.6l-.8 3.84M5.58 8.02 1.8 10.34M0 6.9l1.57.64m4.39-1.92 2.6 2.83m1.56-6.21-3.4 1.7M8.35 0l-.7.9M3.5.02l2.7 2.34M1.9 3.8.1.23m12.74 7.31L8.7 5.84M4.05 3.13l-.8 3.83m13.52 12.42-3.7 2.43m6.73-1.89-2.6-2.83m.78-1.69 3.4-1.7m0-4.47-2.48 3.13m-4.15-.86 2.7 2.33m-6.1-2.13 1.8 3.58m9.35 3.08-2.53-1.04M15.3 14.6l-.8 3.84M16.76 7.9l-3.7 2.44m6.74-1.89-2.6-2.83m.78-1.69 3.4-1.7M18.9.9l.7-.9m-9.48 20.22-1.8 2.28m13.06-2.28-1.8 2.28M14.75.02l2.7 2.34M11.35.22l1.8 3.6m6.82 2.03L22.5 6.9m-7.2-3.77-.8 3.83" clip-path="url(#b)"/></svg>

<?xml version="1.0"?>
<svg xmlns="http://www.w3.org/2000/svg" xmlns:xlink="http://www.w3.org/1999/xlink" width="22.497" height="22.497">
  <defs>
    <path id="a" d="M0 0h22.5v22.5H0z"/>
  </defs>
  <clipPath id="b">
    <use xlink:href="#a" overflow="visible"/>
  </clipPath>
  <path fill="none" stroke="#000" stroke-width=".43" d="M1.8 21.8l3.72-2.42M1.57 19L0 18.38M8.55 19.92l-2.6-2.83M6.73 15.4l3.4-1.7M10.12 9.23l-2.48 3.13M3.5 11.5l2.7 2.33M1.9 15.28l-1.8-3.6M8.7 17.32l4.14 1.7M4.05 14.6l-.8 3.84M5.58 8.02L1.8 10.34M0 6.9l1.57.64M5.96 5.62l2.6 2.83M10.12 2.24l-3.4 1.7M8.35 0l-.7.9M3.5.02l2.7 2.34M1.9 3.8L.1.23M12.84 7.54L8.7 5.84M4.05 3.13l-.8 3.83M16.77 19.38l-3.7 2.43M19.8 19.92l-2.6-2.83M17.98 15.4l3.4-1.7M21.38 9.23l-2.48 3.13M14.75 11.5l2.7 2.33M11.35 11.7l1.8 3.58M22.5 18.36l-2.53-1.04M15.3 14.6l-.8 3.84M16.76 7.9l-3.7 2.44M19.8 8.45l-2.6-2.83M17.98 3.93l3.4-1.7M18.9.9l.7-.9M10.12 20.22l-1.8 2.28M21.38 20.22l-1.8 2.28M14.75.02l2.7 2.34M11.35.22l1.8 3.6M19.97 5.85L22.5 6.9M15.3 3.13l-.8 3.83" clip-path="url(#b)"/>
</svg>
